icons/blood_drop_fill.svg

<svg width="48" height="48" viewBox="0 0 48 48" fill="none" xmlns="http://www.w3.org/2000/svg">
<path d="M38 30.2626C38 37.8496 31.732 44 24 44C16.268 44 10 37.8496 10 30.2626C10 18.2424 24 4 24 4C24 4 38 18.2424 38 30.2626Z" fill="black"/>
<path fill-rule="evenodd" clip-rule="evenodd" d="M24 42C30.6633 42 36 36.7095 36 30.2626C36 24.9058 32.8223 18.7771 29.3548 13.761C27.6552 11.3023 25.9518 9.20336 24.6725 7.71881C24.432 7.4398 24.2069 7.18289 24 6.9498C23.7931 7.18289 23.568 7.4398 23.3275 7.71881C22.0482 9.20336 20.3448 11.3023 18.6452 13.761C15.1777 18.7771 12 24.9058 12 30.2626C12 36.7095 17.3367 42 24 42ZM22.6397 5.47002C19.1224 9.40884 10 20.5597 10 30.2626C10 37.8496 16.268 44 24 44C31.732 44 38 37.8496 38 30.2626C38 20.5597 28.8776 9.40884 25.3603 5.47002C24.5203 4.52933 24 4 24 4C24 4 23.4797 4.52933 22.6397 5.47002Z" fill="black"/>
</svg>

<svg
  xmlns="http://www.w3.org/2000/svg"
  width="24"
  height="24"
  viewBox="0 0 24 24"
  fill="none"
  stroke="currentColor"
  stroke-width="2"
  stroke-linecap="round"
  stroke-linejoin="round"
>
  <path d="M38 30.263C38 37.85 31.732 44 24 44s-14-6.15-14-13.737C10 18.243 24 4 24 4s14 14.242 14 26.263" />
  <path
    fill-rule="evenodd"
    d="M24 42c6.663 0 12-5.29 12-11.737 0-5.357-3.178-11.486-6.645-16.502A73 73 0 0 0 24 6.95q-.311.35-.672.769a73 73 0 0 0-4.683 6.042C15.178 18.777 12 24.906 12 30.263 12 36.709 17.337 42 24 42M22.64 5.47C19.122 9.409 10 20.56 10 30.263 10 37.85 16.268 44 24 44s14-6.15 14-13.737C38 20.56 28.878 9.409 25.36 5.47 24.52 4.53 24 4 24 4s-.52.53-1.36 1.47"
    clip-rule="evenodd"
  />
</svg>
